build/images/content/for/img_2.svg

<svg width="120" height="120" viewBox="0 0 120 120" fill="none" xmlns="http://www.w3.org/2000/svg">
<path d="M46.875 46.874V56.249H59.0625C61.6519 56.249 63.75 58.3471 63.75 60.9365C63.75 63.5259 61.6519 65.624 59.0625 65.624H46.875V76.874H69.375V46.874H46.875Z" fill="#00BBD3"/>
<path d="M23.1413 22.6532L24.375 39.3745L20.625 43.1245L16.875 39.3745L18.1087 22.6514L23.1413 22.6532Z" fill="#00BBD3"/>
<path d="M101.891 22.6532L103.125 39.3745L99.375 43.1245L95.625 39.3745L96.8588 22.6514L101.891 22.6532Z" fill="#00BBD3"/>
<path d="M106.305 21.9684C108.93 19.9059 110.625 16.7128 110.625 13.124C110.625 6.91965 105.579 1.87402 99.375 1.87402C95.2781 1.87402 91.695 4.08277 89.7281 7.3659C88.56 6.2934 87.0188 5.62402 85.3125 5.62402C81.6937 5.62402 78.75 8.56777 78.75 12.1865V30.1959L71.895 30.9571C73.8281 28.6715 75 25.7203 75 22.499C75 15.2615 69.1125 9.37402 61.875 9.37402C54.6375 9.37402 48.75 15.2615 48.75 22.499C48.75 26.3203 50.4 29.7534 53.0138 32.1534C47.3888 33.0459 42.5175 36.2034 39.375 40.6771V39.374C39.375 31.484 34.47 24.7303 27.555 21.9684C30.18 19.9059 31.875 16.7128 31.875 13.124C31.875 6.91965 26.8294 1.87402 20.625 1.87402C14.4206 1.87402 9.375 6.91965 9.375 13.124C9.375 16.7128 11.07 19.9059 13.695 21.9684C6.78 24.7303 1.875 31.484 1.875 39.374V50.624C1.875 54.7603 5.23875 58.124 9.375 58.124V89.0615C9.375 92.6803 12.3188 95.624 15.9375 95.624C17.775 95.624 19.4325 94.8609 20.625 93.6403C21.8175 94.8609 23.475 95.624 25.3125 95.624C28.9312 95.624 31.875 92.6803 31.875 89.0615V58.124C33.2475 58.124 34.5169 57.7265 35.625 57.0815V58.124C35.625 63.2934 39.8306 67.499 45 67.499H59.0625C62.6813 67.499 65.625 64.5553 65.625 60.9365C65.625 57.3178 62.6813 54.374 59.0625 54.374H43.125V58.124H59.0625C60.6131 58.124 61.875 59.3859 61.875 60.9365C61.875 62.4871 60.6131 63.749 59.0625 63.749H45C41.8988 63.749 39.375 61.2253 39.375 58.124V52.499C39.375 43.1953 46.9463 35.624 56.25 35.624H63.75L82.5 33.5521V12.1865C82.5 10.6359 83.7619 9.37402 85.3125 9.37402C86.8631 9.37402 88.125 10.6359 88.125 12.1865V34.6284C88.125 37.4596 86.0063 39.8596 83.1975 40.2103L73.125 41.4684V109.687C73.125 112.272 71.0212 114.374 68.4375 114.374C65.8537 114.374 63.75 112.272 63.75 109.687V76.874H60V109.687C60 112.272 57.8963 114.374 55.3125 114.374C52.7287 114.374 50.625 112.272 50.625 109.687V76.874H46.875V109.687C46.875 114.338 50.6606 118.124 55.3125 118.124C57.9769 118.124 60.3281 116.858 61.875 114.925C63.4219 116.858 65.7731 118.124 68.4375 118.124C73.0894 118.124 76.875 114.338 76.875 109.687V44.7796L80.625 44.3109V50.624C80.625 54.7603 83.9887 58.124 88.125 58.124V89.0615C88.125 92.6803 91.0687 95.624 94.6875 95.624C96.525 95.624 98.1825 94.8609 99.375 93.6403C100.567 94.8609 102.225 95.624 104.062 95.624C107.681 95.624 110.625 92.6803 110.625 89.0615V58.124C114.761 58.124 118.125 54.7603 118.125 50.624V39.374C118.125 31.484 113.22 24.7303 106.305 21.9684ZM13.125 13.124C13.125 8.98777 16.4887 5.62402 20.625 5.62402C24.7612 5.62402 28.125 8.98777 28.125 13.124C28.125 17.2603 24.7612 20.624 20.625 20.624C16.4887 20.624 13.125 17.2603 13.125 13.124ZM31.875 54.374V41.249H28.125V89.0615C28.125 90.6122 26.8631 91.874 25.3125 91.874C23.7619 91.874 22.5 90.6122 22.5 89.0615V52.499H18.75V89.0615C18.75 90.6122 17.4881 91.874 15.9375 91.874C14.3869 91.874 13.125 90.6122 13.125 89.0615V41.249H9.375V54.374C7.30687 54.374 5.625 52.6922 5.625 50.624V39.374C5.625 31.1034 12.3544 24.374 20.625 24.374C28.8956 24.374 35.625 31.1034 35.625 39.374V50.624C35.625 52.6922 33.9431 54.374 31.875 54.374ZM52.5 22.499C52.5 17.3296 56.7056 13.124 61.875 13.124C67.0444 13.124 71.25 17.3296 71.25 22.499C71.25 27.6684 67.0444 31.874 61.875 31.874C56.7056 31.874 52.5 27.6684 52.5 22.499ZM99.375 5.62402C103.511 5.62402 106.875 8.98777 106.875 13.124C106.875 17.2603 103.511 20.624 99.375 20.624C95.2387 20.624 91.875 17.2603 91.875 13.124C91.875 8.98777 95.2387 5.62402 99.375 5.62402ZM92.4731 21.989C92.2744 22.0678 92.0719 22.1353 91.875 22.2215V21.4865C92.07 21.6609 92.2669 21.8296 92.4731 21.989ZM84.375 50.624V43.7728C85.7644 43.4878 87.0413 42.9197 88.125 42.1003V54.374C86.0569 54.374 84.375 52.6922 84.375 50.624ZM114.375 50.624C114.375 52.6922 112.693 54.374 110.625 54.374V41.249H106.875V89.0615C106.875 90.6122 105.613 91.874 104.062 91.874C102.512 91.874 101.25 90.6122 101.25 89.0615V52.499H97.5V89.0615C97.5 90.6122 96.2381 91.874 94.6875 91.874C93.1369 91.874 91.875 90.6122 91.875 89.0615V41.249H89.0831C90.7988 39.5409 91.875 37.2028 91.875 34.6284V26.429C94.1513 25.1053 96.7125 24.374 99.375 24.374C107.646 24.374 114.375 31.1034 114.375 39.374V50.624Z" fill="#043A52"/>
</svg>

<svg width="120" height="120" fill="none" xmlns="http://www.w3.org/2000/svg"><path d="M46.875 46.874v9.375h12.188a4.687 4.687 0 110 9.375H46.874v11.25h22.5v-30h-22.5zM23.141 22.653l1.234 16.721-3.75 3.75-3.75-3.75 1.234-16.723 5.032.002zm78.75 0l1.234 16.721-3.75 3.75-3.75-3.75 1.234-16.723 5.032.002z" fill="#00BBD3"/><path d="M106.305 21.968c2.625-2.062 4.32-5.255 4.32-8.844 0-6.204-5.046-11.25-11.25-11.25-4.097 0-7.68 2.209-9.647 5.492-1.168-1.073-2.71-1.742-4.415-1.742a6.57 6.57 0 00-6.563 6.563v18.009l-6.855.761A13.059 13.059 0 0075 22.5c0-7.237-5.888-13.125-13.125-13.125S48.75 15.261 48.75 22.499c0 3.821 1.65 7.254 4.264 9.654a20.624 20.624 0 00-13.639 8.524v-1.303c0-7.89-4.905-14.644-11.82-17.406 2.625-2.062 4.32-5.255 4.32-8.844 0-6.204-5.046-11.25-11.25-11.25S9.375 6.92 9.375 13.124c0 3.589 1.695 6.782 4.32 8.844-6.915 2.762-11.82 9.516-11.82 17.406v11.25c0 4.136 3.364 7.5 7.5 7.5v30.937a6.57 6.57 0 006.563 6.563 6.535 6.535 0 004.687-1.984 6.535 6.535 0 004.688 1.984 6.57 6.57 0 006.562-6.563V58.124c1.373 0 2.642-.398 3.75-1.043v1.043c0 5.17 4.206 9.375 9.375 9.375h14.063a6.57 6.57 0 006.562-6.562 6.57 6.57 0 00-6.563-6.563H43.126v3.75h15.938a2.816 2.816 0 012.812 2.813 2.816 2.816 0 01-2.813 2.812H45a5.632 5.632 0 01-5.625-5.625v-5.625c0-9.304 7.571-16.875 16.875-16.875h7.5l18.75-2.072V12.187a2.816 2.816 0 012.813-2.813 2.816 2.816 0 012.812 2.813v22.441a5.634 5.634 0 01-4.927 5.582l-10.073 1.258v68.219a4.693 4.693 0 01-4.688 4.687 4.693 4.693 0 01-4.687-4.687V76.874H60v32.813a4.693 4.693 0 01-4.688 4.687 4.693 4.693 0 01-4.687-4.687V76.874h-3.75v32.813c0 4.651 3.786 8.437 8.438 8.437 2.664 0 5.015-1.266 6.562-3.199 1.547 1.933 3.898 3.199 6.563 3.199 4.651 0 8.437-3.786 8.437-8.437V44.78l3.75-.47v6.314c0 4.136 3.364 7.5 7.5 7.5v30.937a6.57 6.57 0 006.563 6.563 6.535 6.535 0 004.687-1.984 6.534 6.534 0 004.687 1.984 6.57 6.57 0 006.563-6.563V58.124c4.136 0 7.5-3.364 7.5-7.5v-11.25c0-7.89-4.905-14.644-11.82-17.406zm-93.18-8.844c0-4.136 3.364-7.5 7.5-7.5s7.5 3.364 7.5 7.5-3.364 7.5-7.5 7.5-7.5-3.364-7.5-7.5zm18.75 41.25V41.249h-3.75v47.812a2.816 2.816 0 01-2.813 2.813 2.816 2.816 0 01-2.812-2.813V52.5h-3.75v36.562a2.816 2.816 0 01-2.813 2.813 2.816 2.816 0 01-2.812-2.813V41.25h-3.75v13.125a3.754 3.754 0 01-3.75-3.75v-11.25c0-8.27 6.73-15 15-15s15 6.73 15 15v11.25a3.754 3.754 0 01-3.75 3.75zM52.5 22.499c0-5.17 4.206-9.375 9.375-9.375 5.17 0 9.375 4.206 9.375 9.375 0 5.17-4.206 9.375-9.375 9.375-5.17 0-9.375-4.206-9.375-9.375zM99.375 5.624c4.136 0 7.5 3.364 7.5 7.5s-3.364 7.5-7.5 7.5-7.5-3.364-7.5-7.5 3.364-7.5 7.5-7.5zm-6.902 16.365c-.199.079-.401.146-.598.232v-.735c.195.175.392.344.598.503zm-8.098 28.635v-6.851a9.288 9.288 0 003.75-1.673v12.274a3.754 3.754 0 01-3.75-3.75zm30 0a3.754 3.754 0 01-3.75 3.75V41.249h-3.75v47.812a2.816 2.816 0 01-2.813 2.813 2.816 2.816 0 01-2.812-2.813V52.5H97.5v36.562a2.816 2.816 0 01-2.813 2.813 2.816 2.816 0 01-2.812-2.813V41.25h-2.792c1.716-1.708 2.792-4.046 2.792-6.62v-8.2c2.276-1.324 4.838-2.055 7.5-2.055 8.271 0 15 6.73 15 15v11.25z" fill="#043A52"/></svg>
